X: 17868
T: Horse Keane's
R: hornpipe
M: 4/4
K: Gmajor
(3BcB (3ABA GABd|eE ~E2 E2 (3GFE|DEGA BddB|BAGB A2 z2|
(3BcB (3ABA GABd|eE ~E2 E2 (3GFE|DEGB ADFA|(3GAB (3AGF G2 z2|
BcAB GABd|eE ~E2 E2 (3GFE|DEGA BddB|BAGB A2 D2|
(3BcB (3ABA GABd|eE ~E2 E2 (3GFE|DEGB ADFA|G2 (3AGF G2||
e2 ef ga (3gfe|dbge dB (3GAB|c2ce dBGA|BAAG A2 z2|
B2 AB GABd|eE ~E2 E2 (3GFE|DEGB ADFA|(3GAB (3AGF G2 (3Bcd|
e2 ef ga(3gfe|dbge dB (3GAB|c2ce dBGA|BAAG A2 z2|
(3BcB (3ABA GABd|eE ~E2 E2 (3GFE|DEGB ADFA|(3GAB (3AGF G2||

